X: 11097
T: TONY'S HORNPIPE
C: Bob McQuillen 2 June '97
B: Bob's Note Book 11 #97
R: hornpipe, reel
Z: 2019 John Chambers <jc:trillian.mit.edu>
M: C
L: 1/8
K: D
FE \
| DFAd A2FA | BGBd B2ed | cedB cAfa | ba^ga fdAF |
| DFAd A2FA | BGBd gfed | Adfa gecd | e2d2  d2  :|
|: de \
| fdAd f2dB | Adfd edBA | dfdB A2de | fagf geag |
| fdAd f2df | gBga g2ag | fdBd Aceg | f2d2 d2  :|
%%begintext align
%% Tony Mateo is a good friend,
%% a great musician, and a talented multi-instrumentalist (yes,
%% he is all the above!) who lives in Seattle, the home of so many other
%% dear friends. Quite often, when I'm out at Folklife, I get to play
%% with Tony, and I must say, it's always a pleasure. Cheers, Tony!
%%endtext

%%sep 1 1 500

%%sep 1 1 500

